app/images/dist/icons-1.svg

<svg width="100%" viewBox="0 0 196 196"  viewBox="0 0 196 196" fill="none" xmlns="http://www.w3.org/2000/svg">
<rect x="15" y="15" width="166" height="166" rx="83" fill="#F8FAFF"/>
<path d="M119.586 93.1004V73.4187H122.075C123.092 73.423 124.015 72.8248 124.427 71.895C124.863 70.9617 124.708 69.8587 124.031 69.0825L116.45 60.3526C115.953 59.8074 115.25 59.4961 114.512 59.4949C113.774 59.4937 113.07 59.8026 112.571 60.3463L104.984 69.0825C104.307 69.859 104.152 70.9617 104.588 71.895C104.999 72.8251 105.922 73.4233 106.939 73.4187H109.428V93.1005C98.8026 95.6729 91.7777 105.783 93.0729 116.639C94.3681 127.494 103.575 135.668 114.507 135.668C125.44 135.668 134.646 127.494 135.942 116.639C137.237 105.783 130.212 95.6729 119.586 93.1004ZM110.698 70.8791H106.92L106.908 70.7522L114.526 62.0147L122.107 70.7522L122.075 70.8791H118.317C117.615 70.8791 117.047 71.4477 117.047 72.1488V92.6281C115.361 92.4114 113.654 92.4114 111.968 92.6281V72.1488C111.968 71.4477 111.399 70.8791 110.698 70.8791ZM114.507 133.099C103.988 133.099 95.4604 124.571 95.4604 114.052C95.4604 103.533 103.988 95.0052 114.507 95.0052C125.027 95.0052 133.554 103.533 133.554 114.052C133.542 124.566 125.021 133.087 114.507 133.099Z" fill="#273B98"/>
<path d="M76.4136 101.995V121.67H73.9247C72.9077 121.666 71.9845 122.264 71.5731 123.194C71.1369 124.128 71.2923 125.23 71.9692 126.007L79.5498 134.737C80.0314 135.309 80.7404 135.639 81.488 135.64C82.2355 135.641 82.9456 135.313 83.4291 134.743L91.0111 126.007C91.6915 125.231 91.8489 124.126 91.4124 123.19C90.9999 122.262 90.0769 121.665 89.0607 121.67H86.572V101.995C97.1976 99.423 104.222 89.313 102.927 78.4573C101.632 67.6019 92.4254 59.4286 81.4927 59.4286C70.5601 59.4286 61.3537 67.6019 60.0583 78.4574C58.763 89.3129 65.788 99.423 76.4136 101.995ZM85.3021 124.21H89.0798L89.0925 124.337L81.4737 133.075L73.893 124.337L73.9247 124.21H77.6834C78.3847 124.21 78.9531 123.642 78.9531 122.94V102.461C79.7958 102.565 80.6436 102.619 81.4927 102.624C82.3416 102.619 83.1897 102.565 84.0324 102.461V122.94C84.0324 123.642 84.6008 124.21 85.3021 124.21ZM81.4927 61.9907C92.012 61.9907 100.54 70.5183 100.54 81.0375C100.54 91.5567 92.012 100.084 81.4927 100.084C70.9735 100.084 62.4459 91.5567 62.4459 81.0375C62.4578 70.5232 70.9785 62.0026 81.4927 61.9907Z" fill="#273B98"/>
<path d="M76.4136 86.1167C76.4136 85.4153 75.845 84.8469 75.1439 84.8469C74.4425 84.8469 73.8741 85.4155 73.8741 86.1167C73.8741 89.2555 76.6258 91.8637 80.2231 92.3704V95.0053C80.2231 95.7066 80.7917 96.275 81.4929 96.275C82.194 96.275 82.7626 95.7066 82.7626 95.0053V92.3704C86.3599 91.8626 89.1116 89.2557 89.1116 86.1167C89.1116 82.9776 86.3599 80.3696 82.7626 79.8629V72.2849C84.9466 72.7103 86.572 74.1896 86.572 75.9584C86.572 76.6598 87.1405 77.2282 87.8417 77.2282C88.5429 77.2282 89.1114 76.6596 89.1114 75.9584C89.1114 72.8196 86.3598 70.2113 82.7624 69.7047V67.0698C82.7624 66.3685 82.1939 65.8 81.4927 65.8C80.7915 65.8 80.223 66.3686 80.223 67.0698V69.7047C76.6256 70.2125 73.874 72.8194 73.874 75.9584C73.874 79.0974 76.6256 81.7055 80.223 82.2122V89.7903C78.0388 89.3647 76.4136 87.8868 76.4136 86.1167ZM86.5718 86.1167C86.5718 87.8867 84.9464 89.3647 82.7624 89.7901V82.4431C84.9466 82.8686 86.5718 84.3466 86.5718 86.1167ZM76.4136 75.9583C76.4136 74.1883 78.039 72.7102 80.223 72.2848V79.6318C78.0388 79.2065 76.4136 77.7284 76.4136 75.9583Z" fill="#273B98"/>
<path d="M114.507 105.164C116.891 105.207 119.097 106.429 120.398 108.427C120.65 108.816 121.093 109.037 121.556 109.003C122.018 108.97 122.425 108.687 122.619 108.266C122.811 107.844 122.76 107.351 122.483 106.979C120.713 104.292 117.724 102.66 114.507 102.624C109.996 102.8 106.122 105.885 104.942 110.243H101.809C101.108 110.243 100.54 110.811 100.54 111.512C100.54 112.214 101.108 112.782 101.809 112.782H104.415C104.374 113.2 104.349 113.623 104.349 114.052C104.349 114.481 104.374 114.904 104.415 115.322H101.809C101.108 115.322 100.54 115.89 100.54 116.591C100.54 117.293 101.108 117.861 101.809 117.861H104.942C106.122 122.219 109.996 125.304 114.507 125.48C117.724 125.444 120.713 123.811 122.483 121.125C122.76 120.752 122.811 120.26 122.619 119.838C122.425 119.417 122.018 119.134 121.556 119.1C121.093 119.067 120.65 119.288 120.398 119.677C119.097 121.675 116.891 122.897 114.507 122.94C111.394 122.808 108.674 120.798 107.634 117.861H114.507C115.209 117.861 115.777 117.293 115.777 116.591C115.777 115.89 115.209 115.322 114.507 115.322H106.975C106.86 114.479 106.86 113.625 106.975 112.782H114.507C115.209 112.782 115.777 112.214 115.777 111.512C115.777 110.811 115.209 110.243 114.507 110.243H107.634C108.674 107.306 111.394 105.296 114.507 105.164Z" fill="#273B98"/>
<rect x="15" y="15" width="166" height="166" rx="83" stroke="#EAEFFF" stroke-opacity="0.21" stroke-width="29"/>
</svg>

<svg width="100%" viewBox="0 0 196 196"  fill="none" xmlns="http://www.w3.org/2000/svg"><rect x="15" y="15" width="166" height="166" rx="83" fill="#F8FAFF"/><path d="M119.586 93.1V73.42h2.489a2.56 2.56 0 0 0 2.352-1.524 2.603 2.603 0 0 0-.396-2.813l-7.581-8.73a2.628 2.628 0 0 0-3.879-.006l-7.587 8.736a2.603 2.603 0 0 0-.396 2.813 2.558 2.558 0 0 0 2.351 1.524h2.489V93.1c-10.625 2.573-17.65 12.683-16.355 23.539 1.295 10.855 10.502 19.029 21.434 19.029 10.933 0 20.139-8.174 21.435-19.029 1.295-10.856-5.73-20.966-16.356-23.539Zm-8.888-22.22h-3.778l-.012-.128 7.618-8.737 7.581 8.737-.032.127h-3.758a1.27 1.27 0 0 0-1.27 1.27v20.48a19.921 19.921 0 0 0-5.079 0v-20.48a1.27 1.27 0 0 0-1.27-1.27Zm3.809 62.219c-10.519 0-19.047-8.528-19.047-19.047s8.528-19.047 19.047-19.047c10.52 0 19.047 8.528 19.047 19.047-.012 10.514-8.533 19.035-19.047 19.047Z" fill="#273B98"/><path d="M76.414 101.995v19.675h-2.49a2.56 2.56 0 0 0-2.35 1.524 2.604 2.604 0 0 0 .395 2.813l7.58 8.73a2.537 2.537 0 0 0 3.88.006l7.582-8.736c.68-.776.838-1.881.401-2.817a2.56 2.56 0 0 0-2.351-1.52h-2.489v-19.675c10.626-2.572 17.65-12.682 16.355-23.538-1.295-10.855-10.502-19.028-21.434-19.028-10.933 0-20.14 8.173-21.435 19.028-1.295 10.856 5.73 20.966 16.356 23.538Zm8.888 22.215h3.778l.013.127-7.62 8.738-7.58-8.738.032-.127h3.758a1.27 1.27 0 0 0 1.27-1.27v-20.479c.843.104 1.69.158 2.54.163a21.783 21.783 0 0 0 2.54-.163v20.479c0 .702.568 1.27 1.27 1.27Zm-3.81-62.22c10.52 0 19.048 8.528 19.048 19.047 0 10.52-8.528 19.047-19.047 19.047-10.52 0-19.047-8.527-19.047-19.047.012-10.514 8.532-19.034 19.047-19.046Z" fill="#273B98"/><path d="M76.414 86.117a1.27 1.27 0 1 0-2.54 0c0 3.138 2.752 5.747 6.35 6.253v2.635a1.27 1.27 0 0 0 2.539 0V92.37c3.597-.507 6.349-3.114 6.349-6.253 0-3.14-2.752-5.747-6.35-6.254v-7.578c2.185.425 3.81 1.905 3.81 3.673a1.27 1.27 0 1 0 2.54 0c0-3.138-2.752-5.747-6.35-6.253V67.07a1.27 1.27 0 1 0-2.539 0v2.635c-3.597.508-6.349 3.114-6.349 6.253 0 3.14 2.752 5.748 6.349 6.254v7.578c-2.184-.425-3.81-1.903-3.81-3.673Zm10.158 0c0 1.77-1.626 3.248-3.81 3.673v-7.347c2.185.426 3.81 1.904 3.81 3.674ZM76.414 75.958c0-1.77 1.625-3.248 3.809-3.673v7.347c-2.184-.425-3.81-1.904-3.81-3.674Zm38.093 29.206a7.183 7.183 0 0 1 5.891 3.263 1.271 1.271 0 1 0 2.085-1.448 9.68 9.68 0 0 0-7.976-4.355 10.326 10.326 0 0 0-9.565 7.619h-3.133a1.269 1.269 0 1 0 0 2.539h2.606c-.041.418-.066.841-.066 1.27 0 .429.025.852.066 1.27h-2.606a1.269 1.269 0 1 0 0 2.539h3.133a10.326 10.326 0 0 0 9.565 7.619 9.683 9.683 0 0 0 7.976-4.355 1.272 1.272 0 0 0-.927-2.025 1.271 1.271 0 0 0-1.158.577 7.183 7.183 0 0 1-5.891 3.263 7.634 7.634 0 0 1-6.873-5.079h6.873a1.27 1.27 0 1 0 0-2.539h-7.532a9.393 9.393 0 0 1 0-2.54h7.532a1.27 1.27 0 1 0 0-2.539h-6.873a7.634 7.634 0 0 1 6.873-5.079Z" fill="#273B98"/><rect x="15" y="15" width="166" height="166" rx="83" stroke="#EAEFFF" stroke-opacity=".21" stroke-width="29"/></svg>
